resources/svg/certificate-o.svg

<svg xmlns="http://www.w3.org/2000/svg" viewBox="0 0 15 15" fill="none"><path d="M9.5 14.5H9C9 14.6894 9.107 14.8625 9.27639 14.9472C9.44579 15.0319 9.64849 15.0136 9.8 14.9L9.5 14.5ZM11.5 13L11.8 12.6C11.6222 12.4667 11.3778 12.4667 11.2 12.6L11.5 13ZM13.5 14.5L13.2 14.9C13.3515 15.0136 13.5542 15.0319 13.7236 14.9472C13.893 14.8625 14 14.6894 14 14.5H13.5ZM11.5 11C10.1193 11 9 9.88071 9 8.5H8C8 10.433 9.567 12 11.5 12V11ZM14 8.5C14 9.88071 12.8807 11 11.5 11V12C13.433 12 15 10.433 15 8.5H14ZM11.5 6C12.8807 6 14 7.11929 14 8.5H15C15 6.567 13.433 5 11.5 5V6ZM11.5 5C9.567 5 8 6.567 8 8.5H9C9 7.11929 10.1193 6 11.5 6V5ZM9 10.5V14.5H10V10.5H9ZM9.8 14.9L11.8 13.4L11.2 12.6L9.2 14.1L9.8 14.9ZM11.2 13.4L13.2 14.9L13.8 14.1L11.8 12.6L11.2 13.4ZM14 14.5V10.5H13V14.5H14ZM15 5V1.5H14V5H15ZM13.5 0H1.5V1H13.5V0ZM0 1.5V13.5H1V1.5H0ZM1.5 15H8V14H1.5V15ZM0 13.5C0 14.3284 0.671573 15 1.5 15V14C1.22386 14 1 13.7761 1 13.5H0ZM1.5 0C0.671574 0 0 0.671573 0 1.5H1C1 1.22386 1.22386 1 1.5 1V0ZM15 1.5C15 0.671573 14.3284 0 13.5 0V1C13.7761 1 14 1.22386 14 1.5H15ZM3 5H8V4H3V5ZM3 8H6V7H3V8Z" fill="black"/></svg>

<svg xmlns="http://www.w3.org/2000/svg" viewBox="0 0 15 15" fill="none"><path d="M9.5 14.5H9a.5.5 0 00.8.4l-.3-.4zm2-1.5l.3-.4a.5.5 0 00-.6 0l.3.4zm2 1.5l-.3.4a.5.5 0 00.8-.4h-.5zm-2-3.5A2.5 2.5 0 019 8.5H8a3.5 3.5 0 003.5 3.5v-1zM14 8.5a2.5 2.5 0 01-2.5 2.5v1A3.5 3.5 0 0015 8.5h-1zM11.5 6A2.5 2.5 0 0114 8.5h1A3.5 3.5 0 0011.5 5v1zm0-1A3.5 3.5 0 008 8.5h1A2.5 2.5 0 0111.5 6V5zM9 10.5v4h1v-4H9zm.8 4.4l2-1.5-.6-.8-2 1.5.6.8zm1.4-1.5l2 1.5.6-.8-2-1.5-.6.8zm2.8 1.1v-4h-1v4h1zM15 5V1.5h-1V5h1zm-1.5-5h-12v1h12V0zM0 1.5v12h1v-12H0zM1.5 15H8v-1H1.5v1zM0 13.5A1.5 1.5 0 001.5 15v-1a.5.5 0 01-.5-.5H0zM1.5 0A1.5 1.5 0 000 1.5h1a.5.5 0 01.5-.5V0zM15 1.5A1.5 1.5 0 0013.5 0v1a.5.5 0 01.5.5h1zM3 5h5V4H3v1zm0 3h3V7H3v1z" fill="currentColor"/></svg>
